icons/2_Variations/IVPN alt.svg

<svg width="1024" height="1024" fill="none" xmlns="http://www.w3.org/2000/svg"><g clip-path="url(#a)"><path d="M512 1024c282.77 0 512-229.23 512-512S794.77 0 512 0 0 229.23 0 512s229.23 512 512 512Z" fill="#FF837D"/><path d="m512 576.141 77.28-215.57h171.379s24.151 1.19 35.421-12.68c6.719-.48-1.41 28.93-9 50.55-7.15 20.28-16 31.87-36.06 31.87h-90.9l-96.6 275.8h-103l-96.6-275.8H273c-20.1 0-28.91-11.59-36.06-31.87-7.62-21.61-15.74-51-9-50.55 11.27 13.87 35.42 12.68 35.42 12.68h171.36L512 576.141Zm-210-107.78s-24.15 1.19-35.42-12.68c-6.72-.48 1.41 28.93 9 50.55 7.15 20.28 16 31.87 36.06 31.87h71.56l-24.151-69.74H302Zm38.64 107.78s-24.15 1.19-35.42-12.68c-6.72-.48 1.41 28.93 9 50.55 7.15 20.28 16 31.87 36.06 31.87h71.56l-24.15-69.74h-57.05ZM722 468.361s24.149 1.19 35.419-12.68c6.72-.48-1.409 28.93-9 50.55-7.15 20.28-16 31.87-36.06 31.87h-71.56l24.151-69.74H722Zm-38.62 107.78s24.15 1.19 35.419-12.68c6.721-.48-1.41 28.93-9 50.55-7.149 20.28-16 31.87-36.059 31.87h-71.581l24.151-69.74h57.07Z" fill="#fff"/></g><defs><clipPath id="a"><path fill="#fff" d="M0 0h1024v1024H0z"/></clipPath></defs></svg>

<svg width="1024" height="1024" viewBox="0 0 1024 1024" fill="none" xmlns="http://www.w3.org/2000/svg">
<g clip-path="url(#clip0_3_134)">
<path d="M512 1024C794.77 1024 1024 794.77 1024 512C1024 229.23 794.77 0 512 0C229.23 0 0 229.23 0 512C0 794.77 229.23 1024 512 1024Z" fill="#FF837D"/>
<path d="M512 576.141L589.28 360.571H760.659C760.659 360.571 784.81 361.761 796.08 347.891C802.799 347.411 794.67 376.821 787.08 398.441C779.93 418.721 771.08 430.311 751.02 430.311H660.12L563.52 706.111H460.52L363.92 430.311H273C252.9 430.311 244.09 418.721 236.94 398.441C229.32 376.831 221.2 347.441 227.94 347.891C239.21 361.761 263.36 360.571 263.36 360.571H434.72L512 576.141ZM302 468.361C302 468.361 277.85 469.551 266.58 455.681C259.86 455.201 267.99 484.611 275.58 506.231C282.73 526.511 291.58 538.101 311.64 538.101H383.2L359.049 468.361H302ZM340.64 576.141C340.64 576.141 316.49 577.331 305.22 563.461C298.5 562.981 306.63 592.391 314.22 614.011C321.37 634.291 330.22 645.881 350.28 645.881H421.84L397.69 576.141H340.64ZM722 468.361C722 468.361 746.149 469.551 757.419 455.681C764.139 455.201 756.01 484.611 748.419 506.231C741.269 526.511 732.419 538.101 712.359 538.101H640.799L664.95 468.361H722ZM683.38 576.141C683.38 576.141 707.53 577.331 718.799 563.461C725.52 562.981 717.389 592.391 709.799 614.011C702.65 634.291 693.799 645.881 673.74 645.881H602.159L626.31 576.141H683.38Z" fill="white"/>
</g>
<defs>
<clipPath id="clip0_3_134">
<rect width="1024" height="1024" fill="white"/>
</clipPath>
</defs>
</svg>
